X: 37211
T: Sirius, The
R: reel
M: 4/4
K: Gmajor
GEDE GABd|e2de gedg|e2de gedB|AE~E2 AEBA|
GEDE GA(3Bcd|e2de gedg|e2de gedB|1 A2GA BG~G2:|2 A2GA BGGz||
~g3a fdaf|efge dG(3Bcd|g2dg edBG|AE~E2 AG(3Bcd|
~g3a fdaf|efge dGBA|GA(3Bcd edge|dBAc BG~g2|
g2ga ~f3a|efge d2(3Bcd|gedg edBG|AE~E2 AEBA|
GEDE GA(3Bcd|e2de gedg|e2de gedB|A2GA BG~G2||

